!!!COM: Augusta Holme\s
!!!CNT: Francais
!!!TXO: Francais
!!!OTL: ""
!!!LYR: 
!!!OPR: Les Heures (L'heure rose)
!!!OPS: Op. 
!!!ONM: No. 
!!!ENC: Alyona Dzerbina
!!!YOR: Augusta Holme\s, Les Heures (L'heure rose)
!!!YOR: Recital Publications, 1982
!!!ODT: 1899/
!!NB: Vocal melody and text encoded.
**kern	**text
*staff1	*staff1
=-	=-
*clefG2	*
*k[b-]	*
*M6/8	*
*MM120	*
{4.ff	{C'est
4ee	l'heu-
(8gg	-re
=1	=1
4.dd)	ro-
4cc}	-se}
8r	.
=2	=2
{8a	{Ou\
8b-	la
8cc	ro-
(4a	-se/e
8c)	ar-
=3	=3
4.d	-ro-
4.b-}	-se}
=4	=4
{4b-	{Le
8a	ca-
8g	-lice
8a	en-
8b-	-tr'ou-
=5	=5
8cc	-vert
8dd	De
8ee	la
4dd	Ro-
8cc}	-se}
=6	=6
{4.c	{Au
4d	cor-
8a	-set
=7	=7
[4.g	vert,
4g]}	|}
8r	.
=8	=8
{4.ff	{L'heu-
4ee	-re
8gg	du
=9	=9
4.dd	son-
4cc}	-ge}
8r	.
=10	=10
{8a	{Dont
8b-	le
8cc	di-
(4a	-vin
8c)	men-
=11	=11
4.d	-son-
4.b-}	-ge}
=12	=12
{4b-	{Sous
8a-	ta
8g-	pau-
8b-	pie\-
8dd-	-re
=13	=13
8ff	d'or
8ee	Se
8dd	pro-
(8cc	-lon-
8a	|
8c)	|
=14	=14
8.d	-ge,
8.b-	Trou-
8.a	-blant
8.g	en-
=15	=15
[4.f	-cor!
4f]}	|}
8r	.
=16	=16
*k[b-e-a-d-g-]	*
{[4.f	{L'heu-
8f]	|
8en	-re
8e-	be/-
=17	=17
4.a-	-ni-
4g-	-e
8g-	Ou\
=18	=18
4f	l'heure,
8f	a\
4a-	l'a^me
8cc	u-
=19	=19
4.b-	-ni-
4a-}	-e,}
{8a-	{Re-
=20	=20
8.ff	-nai^t
8.ee-	de
(8.dd-	sa
8.gn)	lan-
=21	=21
8ff	-gueur
8ee-	In-
8dd-	-fi-
(8a-	-ni-
8b-	.
8dd-	.
=22	=22
8.g-)	-e
8.b-	Sous
8.e-	L'aube
8.en	en
=23	=23
[4.f	fleur
4f]	|
8r}	|}
=24	=24
{[4.cc	{L'heu-
8cc]	|
8a-	-re
8f	d'e^tre
=25	=25
(4.dd-	i-
8gn)	-vre,
8g-	Et
8g-	d'ai-
=26	=26
[4.ee-	mer
8ee-]	|
8cc	-et
8an	de
=27	=27
(4.ff	vi-
4b-)}	-vre,}
8r	.
=28	=28
{8.ff	{L'heu-
8.ff	-re
8.een	du
8.ff	re-
=29	=29
8gg-	-veil
8ff	Qui
8cc	nous
8an	li-
8gn	-vre
8f	au
=30	=30
[4.ddn	Dieu
4dd]	|
8een	So-
=31	=31
[4.cc	-leil!
4cc]}	|}
8r	.
=32	=32
*k[b-]	*
{4.ff	{O
4ee	mon
(8gg	de/-
=33	=33
4.dd)	-li-
4cc}	-re!}
8r	.
=34	=34
{8a	{En
8b-	tends-
[8cc	-tu
8cc]	|
8a	cet-
8c	-te
=35	=35
(4.d	Ly-
4b-)}	-re}
8r	.
=36	=36
{4b-	{Ten-
8a	-dre
8g	com-
8a	-me
8b-	ta
=37	=37
8cc	voix,
8dd	Qui
8ee	sou-
4dd	-pi-
8cc	-re
=38	=38
4.c	Au
4d	fond
8a	des
=39	=39
[4.g	bois?
4g]}	|}
8r	.
=40	=40
{4.ff	{C'est
4ee	la
(8gg	Jeu-
=41	=41
4.dd)	-nes-
4cc}	-se}
8r	.
=42	=42
{8a	{Qui
8b-	nous
(8cc	ha^te
8cc)	|
8a	et
8c	nous
=43	=43
(4.d	pres-
4b-)}	-se}
8r	.
=44	=44
{8b-	{Vers
8a-	les
8g-	sen-
4b-	-tiers
8dd-	fleu-
=45	=45
8ff	-ris,
8ee	O
8dd	Mai-
(8cc	tres-
8a	|
8c)	|
=46	=46
16.d	-se,
16.r	.
8.b-	Du
8.a	Pa-
8.g	-ra-
=47	=47
[4.f	-dis!
4f]}	|}
8r	.
=48	=48
*k[b-e-a-d-]	*
2.r	.
=49	=49
2.r	.
=50	=50
2.r	.
=51	=51
2.r	.
=52	=52
2.r	.
=53	=53
2.r	.
=54	=54
2.r	.
=55	=55
2.r	.
=56	=56
{4.ff	{C'est
4ee-	la
8ff	Jeu-
=57	=57
4.dd-	-nes-
4cc}	-se}
8r	.
=58	=58
{8a-	{Qui
8b-	nous
[8cc	ha^te-
8cc]	|
8b-	-et
8c	nous
=59	=59
(4.d-	pres-
4b-)}	-se}
8r	.
=60	=60
{8dd-	{Vers
8b-	les
8dd-	sen-
4ee-	-tiers
8cc	fleu-
=61	=61
8ff	-ris,
8ee-	O
8dd-	Mai^-
4gg	-tres-
8dd-	-se,
=62	=62
[4.aa-	O
4aa-]	|
(8een	Mai^-
=63	=63
8gg)	-tres
8ff	|
8cc	|
16.a-	|
16.g	|
16.f	|
16.c	|
=64	=64
4d-	-se,
8r	.
4.b-	Du
=65	=65
[4.a-	Pa-
4a-]	|
8g	-ra-
=66	=66
4f}	-dis!}
8r	.
4r	.
8r	.
=67	=67
2.r	.
=68	=68
2.r	.
=69	=69
2.r	.
=70	=70
2.r	.
=71	=71
2.r	.
=72	=72
2.r	.
=73	=73
2.r	.
=74	=74
2.r	.
=75	=75
2.r	.
=76	=76
2.r	.
=77	=77
2.r	.
=78	=78
2.r	.
=79	=79
2.r	.
==	==
*-	*-
